X: 87
T:Tinker's Daughter  [=Broderick's], The
T:Broderick's
M:C|
L:1/8
C:Vincent Broderick
R:Reel
K:D
dB[|:A2FA DFAd|f2fd efdB|A2FA DAFA|B2dB BAFB|!
A2FA DFAd|f2fd efd2|fa~a2 b2af|e2de fdd2:|!
|:fa~a2 baaf|dfad e2de|f2df efdf|f2df edBd|!
fa~a2 baaf|dfaf e2de|f2df efdB|AFEG FDD2:|]!
